X: 42730
T: Whistling Thief, The
R: barndance
M: 4/4
K: Eminor
|B2 BA G2 GA|BddB d2 ed|B2 BA G2 GA|Beed efed|
B2 BA GFGA|BddB d2 gf|eBBA GFGA|Beed efed|
(3Bcd ef g2 ed|BddB d2 BA|(3Bcd ef g2 ga|bgag e2 dc|
(3Bcd ef g2 ed|BddB d2 gf|eBBA GFGA|Beed e4|

